img/service-size-icon__15.svg

<svg width="25" height="23" viewBox="0 0 25 23" fill="none" xmlns="http://www.w3.org/2000/svg">
<path d="M25 12.9841C25 11.4592 24.4661 10.0167 23.4873 8.869L23.0093 1.21577C22.9933 0.958275 22.7798 0.757812 22.522 0.757812H20.4363C20.1815 0.757812 19.9696 0.953888 19.9495 1.20795L19.3815 8.43584C18.9407 8.57794 18.5061 8.74255 18.1 8.91077C16.7599 9.466 15.3551 10.2188 14.2456 10.9761C13.2368 11.6646 12.7403 12.1647 12.5 12.5359C12.2597 12.1647 11.7632 11.6644 10.7544 10.9761C9.64489 10.2188 8.24013 9.466 6.90002 8.91058C6.49395 8.74236 6.05927 8.57794 5.61848 8.43584L5.05047 1.20795C5.03044 0.953888 4.81853 0.757812 4.56371 0.757812H2.47803C2.22015 0.757812 2.00672 0.958275 1.9907 1.21577L1.51272 8.869C0.533867 10.0167 0 11.4592 0 12.9841C0 14.6818 0.661469 16.2779 1.86272 17.4784C1.92356 17.5392 1.98555 17.598 2.0483 17.6558L2.78358 21.8384C2.82478 22.0719 3.02753 22.2422 3.26462 22.2422H16.3643C16.634 22.2422 16.8526 22.0236 16.8526 21.7539C16.8526 21.4842 16.634 21.2656 16.3643 21.2656H3.67451L3.18699 18.4929C4.16527 19.0552 5.26218 19.3369 6.35948 19.3369C7.98283 19.3369 9.60655 18.7208 10.8446 17.4896H14.1554C15.3936 18.721 17.017 19.3369 18.6405 19.3369C19.7376 19.3369 20.8347 19.0552 21.813 18.4927L21.3255 21.2656H20.7588C20.4891 21.2656 20.2705 21.4842 20.2705 21.7539C20.2705 22.0236 20.4891 22.2422 20.7588 22.2422H21.7354C21.9725 22.2422 22.1752 22.0719 22.2162 21.8384L22.9517 17.6558C23.0145 17.598 23.0764 17.5392 23.1373 17.4784C24.3385 16.2779 25 14.6818 25 12.9841ZM20.8878 1.73438H22.0633L22.4611 8.10435C21.8882 7.93574 21.1535 7.98991 20.3827 8.16042L20.8878 1.73438ZM15.4922 11.3331C16.7938 10.5358 18.1921 9.84881 19.6459 9.37712C20.286 9.16941 21.8483 8.58214 22.4468 9.18047C22.5149 9.24857 22.5809 9.31818 22.6448 9.38914C22.6446 9.38895 22.645 9.38933 22.6448 9.38914C22.7436 9.49881 22.8378 9.61249 22.9265 9.72865C21.928 9.95581 20.4874 10.4473 18.9257 11.1025C17.6842 11.6232 15.4034 12.6572 13.3539 14.0002C13.3026 13.732 13.2711 13.4583 13.261 13.1813C13.3024 13.0247 13.7854 12.3789 15.4922 11.3331ZM12.5 14.642C12.6793 15.3076 12.9662 15.939 13.3505 16.5131H11.6493C12.0338 15.939 12.3207 15.3076 12.5 14.642ZM4.11224 1.73438L4.61731 8.16042C3.84655 7.98991 3.11184 7.93574 2.53887 8.10435L2.93674 1.73438H4.11224ZM2.55299 16.7876C1.53656 15.7717 0.976562 14.4207 0.976562 12.9841C0.976562 12.1481 1.16634 11.3417 1.52493 10.6131C1.7662 10.6554 2.11105 10.734 2.59895 10.8771C2.64492 10.8906 2.69108 10.8969 2.73666 10.8969C2.94781 10.8969 3.14255 10.7588 3.20492 10.5459C3.28083 10.2871 3.13244 10.0159 2.8738 9.93998C2.57988 9.85396 2.31266 9.78339 2.07348 9.72865C2.21977 9.53715 2.37961 9.35385 2.55299 9.18047C3.1517 8.58252 4.7163 9.17036 5.35393 9.37712C6.80771 9.84881 8.20618 10.5358 9.50756 11.3331C11.2144 12.3789 11.6976 13.0247 11.7388 13.1811C11.7287 13.4583 11.6972 13.732 11.6459 14.0002C10.0348 12.9444 8.28686 12.0835 7.04498 11.5246C6.79893 11.414 6.50997 11.5237 6.39935 11.7695C6.28853 12.0154 6.3982 12.3045 6.64425 12.4151C7.91759 12.9883 9.73587 13.8861 11.3588 14.9819C11.091 15.6513 10.6882 16.2657 10.166 16.7876C8.06713 18.8853 4.65202 18.8853 2.55299 16.7876ZM14.834 16.7876C14.3118 16.2657 13.909 15.6515 13.6412 14.9821C16.9369 12.7585 21.6984 10.9278 23.4751 10.6131C23.8337 11.3417 24.0234 12.1481 24.0234 12.9841C24.0234 14.4209 23.4634 15.7717 22.447 16.7876C20.348 18.8853 16.9329 18.8853 14.834 16.7876Z" fill="black"/>
<path d="M18.5617 21.2656C18.292 21.2656 18.0732 21.4842 18.0732 21.7539C18.0732 22.0236 18.292 22.2422 18.5617 22.2422C18.8314 22.2422 19.05 22.0236 19.05 21.7539C19.05 21.4842 18.8314 21.2656 18.5617 21.2656Z" fill="black"/>
<path d="M4.98107 10.6632C4.72702 10.5724 4.44759 10.705 4.35699 10.9589C4.2662 11.2127 4.39876 11.4924 4.65263 11.583C4.70699 11.6024 4.76249 11.6116 4.81685 11.6116C5.01751 11.6116 5.20557 11.487 5.27671 11.2873C5.3675 11.0335 5.23513 10.754 4.98107 10.6632Z" fill="black"/>
</svg>

<svg width="25" height="23" fill="none" xmlns="http://www.w3.org/2000/svg"><path d="M25 12.984a6.306 6.306 0 00-1.513-4.115l-.478-7.653a.488.488 0 00-.487-.458h-2.086a.489.489 0 00-.486.45l-.569 7.228c-.44.142-.875.307-1.281.475a22.253 22.253 0 00-3.854 2.065c-1.01.689-1.506 1.189-1.746 1.56-.24-.371-.737-.872-1.746-1.56A22.267 22.267 0 006.9 8.911c-.406-.169-.84-.333-1.282-.475L5.05 1.208a.488.488 0 00-.486-.45H2.478c-.258 0-.471.2-.487.458l-.478 7.653A6.305 6.305 0 000 12.984a6.312 6.312 0 002.048 4.672l.736 4.182a.489.489 0 00.48.404h13.1a.488.488 0 100-.976H3.674l-.487-2.773a6.366 6.366 0 003.172.844 6.342 6.342 0 004.486-1.847h3.31a6.341 6.341 0 004.486 1.847 6.365 6.365 0 003.172-.844l-.487 2.773h-.567a.488.488 0 100 .976h.976c.238 0 .44-.17.481-.404l.736-4.182A6.312 6.312 0 0025 12.984zm-4.112-11.25h1.175l.398 6.37c-.573-.168-1.307-.114-2.078.056l.505-6.426zm-5.396 9.6c1.302-.798 2.7-1.485 4.154-1.957.64-.208 2.202-.795 2.8-.197a5.5 5.5 0 01.199.21c0-.001 0 0 0 0 .099.109.193.222.282.339-.999.227-2.44.718-4.001 1.373-1.242.521-3.523 1.555-5.572 2.898a5.408 5.408 0 01-.093-.819c.041-.156.524-.802 2.231-1.848zM12.5 14.641c.18.666.466 1.297.85 1.871h-1.7a6.31 6.31 0 00.85-1.871zM4.112 1.734l.505 6.426c-.77-.17-1.505-.224-2.078-.056l.398-6.37h1.175zM2.553 16.788a5.343 5.343 0 01-1.576-3.804c0-.836.19-1.642.548-2.37.241.041.586.12 1.074.263a.487.487 0 10.275-.937 14 14 0 00-.8-.211c.146-.192.306-.375.479-.549.599-.597 2.163-.01 2.8.197 1.455.472 2.853 1.159 4.155 1.956 1.706 1.046 2.19 1.692 2.23 1.848-.01.277-.04.551-.092.82-1.611-1.057-3.36-1.917-4.601-2.476a.488.488 0 00-.4.89c1.273.573 3.09 1.471 4.714 2.567a5.392 5.392 0 01-8.806 1.806zm12.281 0a5.372 5.372 0 01-1.193-1.806c3.296-2.223 8.057-4.054 9.834-4.369a5.35 5.35 0 01.548 2.371c0 1.437-.56 2.788-1.576 3.804a5.392 5.392 0 01-7.613 0z" fill="#000"/><path d="M18.562 21.266a.488.488 0 100 .976.488.488 0 000-.976zM4.981 10.663a.488.488 0 10-.328.92.488.488 0 00.328-.92z" fill="#000"/></svg>
